X: 1
T: Waulkin'O'the Fauld
S:Johnny Cunningham CD "Fair Warning"
F:http://www.ibiblio.org/fiddlers/WAT_WAZ.htm 2012-9-18
M:C
L:1/16
K:Ddor
C3A, |\
D4 D3E D4 c3A | G3E D2C2 A,4 G,2A,2 |\
C3D E3D CA,3 G,2A,2 | C3D E3D C3A, G,2A,2 |
A,D3 D3E D4 C2D2 | E3D E2G2 A4 c2d2 |\
e3d c2A2 G2AB c2EF/E/ | D3C A,C3 |1 D4 :|2 D6 z2 |]
Ad3 d3e d4 c2d2 | e4 d3c A4 G2A2 |\
c3d e.gz2 C3D E.Cz2 | {B}cBcd c2.ez C2D2 E2F2 |
Ad3 d3e d4 c2B2 | A3G A2c2 d4 c2d2 |\
edc2 dcA2 G2AB c2EF/E/ | D3C A,C3 D6 z2 |]
